MonoIcons/scalable/status/alarm-symbolic.svg

<?xml version="1.0" encoding="UTF-8"?>
<svg height="16px" viewBox="0 0 16 16" width="16px" xmlns="http://www.w3.org/2000/svg">
    <path d="m 3.335938 1.003906 c -0.4375 0.03125 -0.859376 0.175782 -1.222657 0.417969 c -1.152343 0.765625 -1.460937 2.320313 -0.691406 3.46875 l 4.15625 -2.777344 c -0.496094 -0.746093 -1.351563 -1.164062 -2.242187 -1.109375 z m 8 0 c -0.773438 0.054688 -1.484376 0.460938 -1.914063 1.109375 l 4.15625 2.777344 c 0.769531 -1.148437 0.460937 -2.703125 -0.691406 -3.46875 c -0.457031 -0.304687 -1 -0.453125 -1.550781 -0.417969 z m -3.835938 1.996094 c -3.578125 0 -6.5 2.925781 -6.5 6.5 c 0 1.6875 0.652344 3.230469 1.710938 4.386719 l -0.410157 0.398437 c -0.394531 0.386719 -0.402343 1.019532 -0.015625 1.414063 c 0.382813 0.394531 1.015625 0.40625 1.414063 0.019531 l 0.589843 -0.574219 c 0.945313 0.542969 2.042969 0.855469 3.210938 0.855469 c 1.1875 0 2.296875 -0.320312 3.257812 -0.882812 l 0.503907 0.554687 c 0.371093 0.410156 1 0.441406 1.410156 0.070313 c 0.410156 -0.371094 0.4375 -1.003907 0.070313 -1.410157 l -0.425782 -0.472656 c 1.042969 -1.15625 1.683594 -2.683594 1.683594 -4.359375 c 0 -3.574219 -2.921875 -6.5 -6.5 -6.5 z m 0 2 c 2.496094 0 4.5 2.003906 4.5 4.5 c 0 2.5 -2.003906 4.5 -4.5 4.5 s -4.5 -2 -4.5 -4.5 c 0 -2.496094 2.003906 -4.5 4.5 -4.5 z m 0 1 c -0.277344 0 -0.5 0.226562 -0.5 0.5 v 2.5 h -1.5 c -0.277344 0 -0.5 0.226562 -0.5 0.5 c 0 0.277344 0.222656 0.5 0.5 0.5 h 2 c 0.277344 0 0.5 -0.222656 0.5 -0.5 v -3 c 0 -0.273438 -0.222656 -0.5 -0.5 -0.5 z m 0 0" fill="#2e3436"/>
</svg>

<svg width="16" height="16" viewBox="0 0 16 16" fill="none" xmlns="http://www.w3.org/2000/svg">
<g clip-path="url(#clip0_231_1386)">
<path d="M3.33587 1.00385C2.89837 1.0351 2.4765 1.17963 2.11322 1.42182C0.960874 2.18745 0.65228 3.74213 1.42181 4.89057L5.57806 2.11323C5.08197 1.36713 4.2265 0.949166 3.33587 1.00385V1.00385ZM11.3359 1.00385C10.5624 1.05854 9.8515 1.46479 9.42181 2.11323L13.5781 4.89057C14.3476 3.74213 14.039 2.18745 12.8867 1.42182C12.4296 1.11713 11.8867 0.968697 11.3359 1.00385V1.00385ZM7.49994 2.99995C3.92181 2.99995 0.999936 5.92573 0.999936 9.49995C0.999936 11.1874 1.65228 12.7304 2.71087 13.8867L2.30072 14.2851C1.90619 14.6718 1.89837 15.3046 2.28509 15.6992C2.66791 16.0937 3.30072 16.1054 3.69916 15.7187L4.289 15.1445C5.23431 15.6874 6.33197 15.9999 7.49994 15.9999C8.68744 15.9999 9.79681 15.6796 10.7577 15.1171L11.2617 15.6718C11.6327 16.082 12.2617 16.1132 12.6718 15.7421C13.082 15.371 13.1093 14.7382 12.7421 14.332L12.3163 13.8593C13.3593 12.7031 13.9999 11.1757 13.9999 9.49995C13.9999 5.92573 11.0781 2.99995 7.49994 2.99995ZM7.49994 4.99995C9.99603 4.99995 11.9999 7.00385 11.9999 9.49995C11.9999 11.9999 9.99603 13.9999 7.49994 13.9999C5.00384 13.9999 2.99994 11.9999 2.99994 9.49995C2.99994 7.00385 5.00384 4.99995 7.49994 4.99995ZM7.49994 5.99995C7.22259 5.99995 6.99994 6.22651 6.99994 6.49995V8.99995H5.49994C5.22259 8.99995 4.99994 9.22651 4.99994 9.49995C4.99994 9.77729 5.22259 9.99995 5.49994 9.99995H7.49994C7.77728 9.99995 7.99994 9.77729 7.99994 9.49995V6.49995C7.99994 6.22651 7.77728 5.99995 7.49994 5.99995Z" fill="#2E3436"/>
</g>
<defs>
<clipPath id="clip0_231_1386">
<rect width="16" height="16" fill="white"/>
</clipPath>
</defs>
</svg>
